public/svg/icon/bay.svg

<svg xmlns="http://www.w3.org/2000/svg" xmlns:xlink="http://www.w3.org/1999/xlink" width="32" height="32" viewBox="0 0 32 32"><defs><linearGradient id="bay-c" x1="50%" x2="50%" y1="0%" y2="100%"><stop offset="0%" stop-color="#FFF" stop-opacity=".5"/><stop offset="100%" stop-opacity=".5"/></linearGradient><circle id="bay-b" cx="16" cy="15" r="15"/><filter id="bay-a" width="111.7%" height="111.7%" x="-5.8%" y="-4.2%" filterUnits="objectBoundingBox"><feOffset dy=".5" in="SourceAlpha" result="shadowOffsetOuter1"/><feGaussianBlur in="shadowOffsetOuter1" result="shadowBlurOuter1" stdDeviation=".5"/><feComposite in="shadowBlurOuter1" in2="SourceAlpha" operator="out" result="shadowBlurOuter1"/><feColorMatrix in="shadowBlurOuter1" values="0 0 0 0 0 0 0 0 0 0 0 0 0 0 0 0 0 0 0.199473505 0"/></filter><path id="bay-e" d="M22.0304502,14.9770324 C22.0817733,14.917973 22.1395117,14.8589136 22.1972502,14.7998542 C22.3832964,14.5964273 22.5885888,14.379876 22.7810504,14.169887 C23.5573122,13.343055 23.987143,12.2668611 23.987143,11.1381699 C23.987143,11.059424 23.9999738,10.7378782 23.9999738,10.6919431 C23.9101584,8.10645279 21.7610039,6 19.2205109,6 L11.220524,6 L11.220524,9.26795479 L8,9.26795479 L8,24 L19.3488186,24 C21.8700655,24 23.9999738,21.7294933 23.9999738,19.0390084 C24.0063892,17.116296 22.8323735,15.7579293 22.0304502,14.9770324 Z M12.8243706,10.9084943 L19.1948494,10.9150565 L15.1916482,15.0229676 L19.1499417,19.0915057 L12.8243706,19.0915057 L12.8243706,10.9084943 Z M19.3488186,22.3528983 L9.60384661,22.3528983 L9.60384661,10.9019322 L11.220524,10.9019322 L11.220524,20.725483 L19.1499417,20.725483 C19.8043111,20.725483 20.3881112,20.3251914 20.6383113,19.7083485 C20.8885114,19.0915057 20.7537883,18.3893547 20.2918804,17.9168793 L17.462695,15.0164054 L20.3367882,12.0699964 C20.798696,11.597521 20.9334191,10.89537 20.683219,10.2785272 C20.433019,9.66168429 19.8492188,9.26139264 19.1948494,9.26139264 L12.830786,9.26139264 L12.830786,7.6339774 L19.2269263,7.6339774 C20.9205883,7.6339774 22.3448041,9.0317171 22.4025426,10.7313161 C22.4025426,10.8034998 22.3897118,11.0856726 22.3897118,11.0922348 L22.3897118,11.1250456 C22.3897118,12.0831207 21.9149732,12.7327743 21.6262808,13.0346336 C21.4274039,13.2446227 21.2221115,13.4677361 21.0360653,13.6646008 C20.7217113,13.9992709 20.4522651,14.2880058 20.3239574,14.419249 L19.7465726,14.9967189 L20.317542,15.580751 C20.3945266,15.6594969 20.4907574,15.7513671 20.6062344,15.8629238 C21.2734346,16.492891 22.3961272,17.5428363 22.3961272,19.0258841 C22.4025426,20.7976668 20.9783268,22.3528983 19.3488186,22.3528983 Z"/><filter id="bay-d" width="118.8%" height="116.7%" x="-9.4%" y="-8.3%" filterUnits="objectBoundingBox"><feOffset in="SourceAlpha" result="shadowOffsetOuter1"/><feGaussianBlur in="shadowOffsetOuter1" result="shadowBlurOuter1" stdDeviation=".5"/><feColorMatrix in="shadowBlurOuter1" values="0 0 0 0 0 0 0 0 0 0 0 0 0 0 0 0 0 0 0.204257246 0"/></filter></defs><g fill="none" fill-rule="evenodd"><use fill="#000" filter="url(#bay-a)" xlink:href="#bay-b"/><use fill="#6356AB" xlink:href="#bay-b"/><use fill="url(#bay-c)" style="mix-blend-mode:soft-light" xlink:href="#bay-b"/><circle cx="16" cy="15" r="14.5" stroke="#000" stroke-opacity=".097"/><g fill-rule="nonzero"><use fill="#000" filter="url(#bay-d)" xlink:href="#bay-e"/><use fill="#FFF" fill-rule="evenodd" xlink:href="#bay-e"/></g></g></svg>

<svg xmlns="http://www.w3.org/2000/svg" xmlns:xlink="http://www.w3.org/1999/xlink" width="32" height="32" viewBox="0 0 32 32"><defs><filter id="a" width="111.7%" height="111.7%" x="-5.8%" y="-4.2%" filterUnits="objectBoundingBox"><feOffset dy=".5" in="SourceAlpha" result="shadowOffsetOuter1"/><feGaussianBlur in="shadowOffsetOuter1" result="shadowBlurOuter1" stdDeviation=".5"/><feComposite in="shadowBlurOuter1" in2="SourceAlpha" operator="out" result="shadowBlurOuter1"/><feColorMatrix in="shadowBlurOuter1" values="0 0 0 0 0 0 0 0 0 0 0 0 0 0 0 0 0 0 0.199473505 0"/></filter><filter id="d" width="118.8%" height="116.7%" x="-9.4%" y="-8.3%" filterUnits="objectBoundingBox"><feOffset in="SourceAlpha" result="shadowOffsetOuter1"/><feGaussianBlur in="shadowOffsetOuter1" result="shadowBlurOuter1" stdDeviation=".5"/><feColorMatrix in="shadowBlurOuter1" values="0 0 0 0 0 0 0 0 0 0 0 0 0 0 0 0 0 0 0.204257246 0"/></filter><linearGradient id="c" x1="50%" x2="50%" y1="0%" y2="100%"><stop offset="0%" stop-color="#FFF" stop-opacity=".5"/><stop offset="100%" stop-opacity=".5"/></linearGradient><circle id="b" cx="16" cy="15" r="15"/><path id="e" d="M22.03 14.977c.052-.059.11-.118.167-.177.186-.204.392-.42.584-.63a4.417 4.417 0 001.206-3.032c0-.079.013-.4.013-.446C23.91 8.106 21.761 6 19.22 6h-8v3.268H8V24h11.349C21.87 24 24 21.73 24 19.039c.006-1.923-1.168-3.281-1.97-4.062zm-9.206-4.069l6.37.007-4.002 4.108 3.958 4.069h-6.326v-8.184zm6.525 11.445H9.604V10.902h1.617v9.823h7.929c.654 0 1.238-.4 1.488-1.017a1.664 1.664 0 00-.346-1.791l-2.83-2.9 2.875-2.947a1.664 1.664 0 00.346-1.791 1.607 1.607 0 00-1.488-1.018H12.83V7.634h6.396c1.694 0 3.118 1.398 3.176 3.097 0 .072-.013.355-.013.361v.033c0 .958-.475 1.608-.764 1.91-.199.21-.404.433-.59.63-.314.334-.584.623-.712.754l-.577.578.57.584c.078.078.174.17.29.282.666.63 1.79 1.68 1.79 3.163.006 1.772-1.419 3.327-3.048 3.327z"/></defs><g fill="none" fill-rule="evenodd"><use fill="#000" filter="url(#a)" xlink:href="#b"/><use fill="#6356AB" xlink:href="#b"/><use fill="url(#c)" style="mix-blend-mode:soft-light" xlink:href="#b"/><circle cx="16" cy="15" r="14.5" stroke="#000" stroke-opacity=".097"/><g fill-rule="nonzero"><use fill="#000" filter="url(#d)" xlink:href="#e"/><use fill="#FFF" fill-rule="evenodd" xlink:href="#e"/></g></g></svg>
